!!!!SEGMENT: pl-cz--ii-87--004-008_hepner--msza-st-agnus.krn
!!!cenid: 18xx:1195
!!!COM: Hepner
!!!COM-rismID: pe30021002
!!!CDT: ~1800-~1899
!!!CNT:
!!!OPR: Msza St.
!!!OTL: Agnus
!!!OMV: 008
!!!PDT: 1888
!!!AGN: Sacred; Mass
!!!SMS-siglum: PL-CZ
!!!SMS-shelfmark: II-87
!!!SMS-shelfwork: 004-008 M
!!!SMS-variant:
!!!SMS-altvar:
!!!NIFC-rismSourceID: 300033223
!!!NIFC-rismChildID: 300033227
!!!NIFC-islandoraID: pl-cz:33881
!!!URL-pdf-islandora: https://repozytorium.nifc.pl/islandora/object/pl-cz%3A33881/datastream/PDF/view
!!!URL-scan: https://polish.musicsources.pl/pl/lokalizacje/galeria/rekopisy/6814/1 @EN{Scan on Polish Music Sources Website} @PL{Skany w portalu Dziedzictwo Muzyki Polskiej w otwartym dostępie}
!!!IIIF:
!!!ONB-nifc: UWAGA: części Mszy: Kirie, Gloria, Graduale, Credo, Offertorium, Sanctus, Benedictus, Agnus, Communio, Benedicio
!!!AIN: 1 organ
!!!key: g
!!!OMD: Larghete
**kern	**kern	**text
*part1	*part1	*part1
*staff2	*staff1	*staff1
*ICklav	*ICklav	*
*IGacmp	*IGacmp	*
*Iorgan	*Iorgan	*
*I"	*I"	*
*clefF4	*clefG2	*
*k[b-e-]	*k[b-e-]	*
*g:	*g:	*
*M4/4	*M4/4	*
*met(c)	*met(c)	*
=1	=1	=1
!LO:SIC:v:n=2:s=2.GG\	!	!
2.G 2.AA\	2.g 2.d 2.B-/	Lej-
4r	8g/L	.
.	8a/J	.
=2	=2	=2
4G 4GG\	4.b- 4.g 4.e-/	-my
4BB-/	.	.
.	8b- 8g/	łzy
4D\	4b- 4g/	chrze-
4G\	4b- 4g/	-sci-
=3	=3	=3
4D\	8b-L 8g/	-a-
.	8aJ 8f#X/	.
4d\	2a 2f#/	-nie
4D\	.	.
4F#X\	4ee- 4cc\	Syn.
=4	=4	=4
*^	*	*
2G\	2ryy	(8ee-L 8cc\	Bo-
.	.	8dd 8b-\)	.
.	.	(8cc 8a\	-ży
.	.	8b-J 8g\)	.
8d/L	2D\	(8b-/L	za
8c/	.	8a/)	.
8B-/	.	(8g/	nas
!	!	!LO:SIC:v:s=8f#/J	!
8A/J	.	8f/J)	.
*v	*v	*	*
!!LO:LB:g=original
=5	=5	=5
4G\	2g 2d 2B-/	ginie
8D\L	.	.
8BB-\J	.	.
4GG/	4r	.
4r	8g/L	za
.	8a/J	.
=6	=6	=6
4G 4GG\	4.b- 4.g/	nas
4BB-/	.	.
.	8b- 8g/	to
4D\	4b- 4g/	zkaż-
4G\	4b- 4g/	-dej
=7	=7	=7
*	*^	*
4D\	8b-L 8g/	2rgyy	ra-
.	8aJ 8f#X/	.	.
4d\	2a 2f#/	.	-ny
4D\	.	4ryy	.
!	!	!LO:SIC:v:n=2:s=4en\	!
4A 4AA\	4cc#X 4a/	4g 4e-\	ta
=8	=8	=8	=8
4D\	4dd 4a 4f#X\	2rgyy	krew
4C#X\	4een 4a 4g\	.	Swię-
4D\	4dd 4a 4f#\	4rgyy	-ta
!	!	!LO:SIC:v:n=2:s=4en\	!
4G 4GG\	4cc#X 4a/	4g 4e-\	pły-
*	*v	*v	*
=9	=9	=9
8D\L	2dd 2a 2f#X\	-nie
8d\	.	.
8A\	.	.
8F#X\J	.	.
4D\	4r	.
4r	4dd 4a 4f#X/	zpo-
=10	=10	=10
4DD/	2b- 2g 2d/	-ko-
4D\	.	.
4DD/	2g 2d 2B-/	-rą
4D\	.	.
!!LO:LB:g=original
=11	=11	=11
4DD/	4f#X 4d 4B-/	on
4D\	4g 4d 4B-/	na
4DD/	4a 4f# 4d/	sie-
4D\	8.ccL 8.g 8.d/	-bie
.	16b-Jk 16g/	.
=12	=12	=12
4DD/	4a 4f#X/	bie-
4D\	8b-L 8g/	-że
.	8aJ 8f#/	.
4DD/	4a 4f# 4d/	na-
4D\	8b-L 8g/	-sze
.	8aJ 8f#/	.
=13	=13	=13
4DD/	2a 2f#X 2d/	winy
4D\	.	.
4DD/	4r	.
4r	4dd 4bn 4g\	I
=14	=14	=14
!	!LO:SIC:v:n=2:s=2bn	!
2G 2GG\	(2dd 2b- 2g\	bła-
!	!LO:SIC:v:s=4bn/)	!
2r	4b-/)	.
.	4g/	-ga
=15	=15	=15
2C/	(2een 2cc 2g\	Oj-
2r	4cc\)	.
.	4a\	-ca
=16	=16	=16
4r	8g/L	w Nie-
.	8f#X/J	.
2c 2A 2D\	2f#;/	-bie
4D\	4a 4f# 4d/	By
=17	=17	=17
2D\	2b-X 2g 2e-\	spój-
2D\	2b- 2g 2d\	-zał
=18	=18	=18
2D\	[2b- 2g 2d/	na
2D\	4.b-] 4.g/	.
.	8a 8f#X/	sy-
!!LO:PB:g=original
=19	=19	=19
8D/L	2a 2f#X 2d/	-ny
8DD/	.	.
8FF#X/	.	.
8AA/J	.	.
4D\	2cc 2g 2e-X/	by
4r	.	.
=20	=20	=20
2C/	2a 2g 2e-/	spuj-
2D/	2a 2f#X/	-rzał
=21	=21	=21
*	*^	*
4G 4GG\	4g 4B-/	4rAyy	na
4r	4r	4ryy	.
2F#X\	4.dd/	2a 2d\	sy-
.	8cc/	.	.
*	*v	*v	*
=22	=22	=22
4G\	4b- 4g 4d/	-ny.
4r	4r	.
2F#X\	2a 2f#X/	.
=23	=23	=23
4G 4GG\	4g 4B-/	.
4r	4r	.
4G 4GG\	4g 4B-/	.
4r	4r	.
=24	=24	=24
2G 2GG\	2g 2d 2B-/	.
2r	2r	.
==	==	==
*-	*-	*-
!!!system-decoration: (s1,s2)
!!!ENC: Andrzej Kubiczek
!!!END: 2020-11-08
!!!ENC: Marta Lawrence
!!!END: 2021-11-15
!!!YEC: Copyright 2022 Narodowy Instytut Fryderyka Chopina (https://polishscores.org)
!!!YEM: License CC-BY-4.0 (https://creativecommons.org/licenses/by/4.0)
